X:29
T:Bourree valsee d'Ardentes (in G)
Z:Jack Campin, 2014
F:http://www.campin.me.uk/Music/YoupNannetteD.abc
S:p35, p1000224.jpg
M:3/8
L:1/8
Q:1/4=120
K:G
d|d/c/Bc|d2e|d/c/BA|BG\
d|d/c/Bc|d2e|d/c/BA|G2:|
G|A/B/cB|A2d|d/c/BA|BG\
B|A/B/cB|A2d|d/c/BA|G2:|

